src/assets/healthPage/RootCanal/credit_card.svg

<svg height="38" viewBox="0 0 56 38" width="56" xmlns="http://www.w3.org/2000/svg"><g fill="none"><path d="m9.6.3h43.8c1.5 0 2.6 1.2 2.6 2.6v25.2c0 1.4-1.1 2.6-2.6 2.6h-6.7l-2.1-18.8c-.2-1.2-1.3-2.2-2.6-2.2h-35v-6.8c0-1.4 1.1-2.6 2.6-2.6z" fill="#f5f5f5" opacity=".3"/><path d="m46.3 7.3c1.5 0 2.7 1.3 2.7 2.8v24.8c0 1.5-1.2 2.8-2.7 2.8h-43.6c-1.5 0-2.7-1.3-2.7-2.8v-24.8c0-1.5 1.2-2.8 2.7-2.8zm-3.7 19.5c-1.4-1.8-4-2.4-6.2-1.4-.7-.3-1.4-.5-2.2-.5-2.1 0-4 1.3-4.7 3.2-.8 2-.3 4.2 1.2 5.6 1.6 1.4 3.8 1.8 5.7.9 2.2 1 4.8.4 6.2-1.4 1.5-1.9 1.5-4.5 0-6.4zm-20.8 6.9h-2.7c-.4 0-.7.3-.7.7s.3.7.7.7h2.7c.4 0 .7-.3.7-.7s-.3-.7-.7-.7zm-5.5 0h-12.5c-.4 0-.7.3-.7.7s.3.7.7.7h12.5c.3 0 .6-.3.6-.7s-.3-.7-.6-.7zm15-6c.9-1.2 2.4-1.7 3.8-1.3-1 .9-1.6 2.2-1.6 3.6 0 1.3.6 2.6 1.6 3.6-.3.1-.6.1-.9.1-1.4 0-2.7-.8-3.3-2.1-.7-1.3-.5-2.8.4-3.9zm6.5-1.3c1.5-.4 3.1.2 3.9 1.5.9 1.2.9 2.9 0 4.2-.8 1.2-2.4 1.8-3.9 1.5 1-1 1.5-2.3 1.5-3.6 0-1.4-.5-2.7-1.5-3.6zm-1.4.6c1 .7 1.6 1.8 1.6 3s-.6 2.3-1.6 3c-.9-.7-1.5-1.8-1.5-3s.6-2.3 1.5-3zm-14.6 2.7h-12c-.4 0-.7.3-.7.7s.3.7.7.7h12c.4 0 .7-.3.7-.7s-.3-.7-.7-.7zm-14.8 0h-3.2c-.4 0-.7.3-.7.7s.3.7.7.7h3.2c.4 0 .7-.3.7-.7s-.3-.7-.7-.7zm12.5-18.7h-15.7c-.4 0-.7.3-.7.7v4.3c0 .4.3.7.7.7h15.7c.4 0 .7-.3.7-.7v-4.3c0-.4-.3-.7-.7-.7zm-.6 1.4v3h-14.4v-3z" fill="#fff"/></g></svg>

<svg xmlns="http://www.w3.org/2000/svg" width="56" height="38" viewBox="0 0 56 38"><title>  Icons&#x2F;credit_card@2x</title><g fill="none"><path d="M9.6 0.3L53.4 0.3C54.9 0.3 56 1.5 56 2.9L56 28.1C56 29.5 54.9 30.7 53.4 30.7L46.7 30.7 46.7 30.7 44.6 11.9C44.4 10.7 43.3 9.7 42 9.7L7 9.7 7 9.7 7 2.9C7 1.5 8.1 0.3 9.6 0.3Z" style="fill:#F5F5F5;opacity:0.3"/><path d="M46.3 7.3C47.8 7.3 49 8.6 49 10.1L49 10.1 49 34.9C49 36.4 47.8 37.7 46.3 37.7L46.3 37.7 2.7 37.7C1.2 37.7 0 36.4 0 34.9L0 34.9 0 10.1C0 8.6 1.2 7.3 2.7 7.3L2.7 7.3ZM42.6 26.8C41.2 25 38.6 24.4 36.4 25.4 35.7 25.1 35 24.9 34.2 24.9 32.1 24.9 30.2 26.2 29.5 28.1 28.7 30.1 29.2 32.3 30.7 33.7 32.3 35.1 34.5 35.5 36.4 34.6 38.6 35.6 41.2 35 42.6 33.2 44.1 31.3 44.1 28.7 42.6 26.8ZM21.8 33.7L19.1 33.7C18.7 33.7 18.4 34 18.4 34.4 18.4 34.8 18.7 35.1 19.1 35.1L19.1 35.1 21.8 35.1C22.2 35.1 22.5 34.8 22.5 34.4 22.5 34 22.2 33.7 21.8 33.7L21.8 33.7ZM16.3 33.7L3.8 33.7C3.4 33.7 3.1 34 3.1 34.4 3.1 34.8 3.4 35.1 3.8 35.1L3.8 35.1 16.3 35.1C16.6 35.1 16.9 34.8 16.9 34.4 16.9 34 16.6 33.7 16.3 33.7L16.3 33.7ZM31.3 27.7C32.2 26.5 33.7 26 35.1 26.4 34.1 27.3 33.5 28.6 33.5 30 33.5 31.3 34.1 32.6 35.1 33.6 34.8 33.7 34.5 33.7 34.2 33.7 32.8 33.7 31.5 32.9 30.9 31.6 30.2 30.3 30.4 28.8 31.3 27.7ZM37.8 26.4C39.3 26 40.9 26.6 41.7 27.9 42.6 29.1 42.6 30.8 41.7 32.1 40.9 33.3 39.3 33.9 37.8 33.6 38.8 32.6 39.3 31.3 39.3 30 39.3 28.6 38.8 27.3 37.8 26.4ZM36.4 27C37.4 27.7 38 28.8 38 30 38 31.2 37.4 32.3 36.4 33 35.5 32.3 34.9 31.2 34.9 30 34.9 28.8 35.5 27.7 36.4 27ZM21.8 29.7L9.8 29.7C9.4 29.7 9.1 30 9.1 30.4 9.1 30.8 9.4 31.1 9.8 31.1L9.8 31.1 21.8 31.1C22.2 31.1 22.5 30.8 22.5 30.4 22.5 30 22.2 29.7 21.8 29.7L21.8 29.7ZM7 29.7L3.8 29.7C3.4 29.7 3.1 30 3.1 30.4 3.1 30.8 3.4 31.1 3.8 31.1L3.8 31.1 7 31.1C7.4 31.1 7.7 30.8 7.7 30.4 7.7 30 7.4 29.7 7 29.7L7 29.7ZM19.5 11L3.8 11C3.4 11 3.1 11.3 3.1 11.7L3.1 11.7 3.1 16C3.1 16.4 3.4 16.7 3.8 16.7L3.8 16.7 19.5 16.7C19.9 16.7 20.2 16.4 20.2 16L20.2 16 20.2 11.7C20.2 11.3 19.9 11 19.5 11L19.5 11ZM18.9 12.4L18.9 15.4 4.5 15.4 4.5 12.4 18.9 12.4Z" fill="#FFF"/></g></svg>
